src/assets/octocat.svg

<?xml version="1.0" encoding="UTF-8"?>
<svg xmlns="http://www.w3.org/2000/svg" xmlns:xlink="http://www.w3.org/1999/xlink" width="100pt" height="100pt" viewBox="0 0 100 100" version="1.1">
<defs>
<clipPath id="clip1">
  <path d="M 34 73 L 66 73 L 66 87 L 34 87 Z M 34 73 "/>
</clipPath>
<clipPath id="clip2">
  <path d="M 38.195312 93.875 C 38.820312 96.746094 40.34375 98.433594 41.855469 99.4375 L 57.863281 99.4375 C 59.8125 98.132812 61.796875 95.679688 61.796875 91.074219 L 61.796875 79.1875 C 61.796875 79.1875 62.03125 76.234375 64.792969 75.277344 C 64.792969 75.277344 66.386719 74.164062 64.675781 73.550781 C 64.675781 73.550781 57.085938 72.933594 57.085938 79.070312 L 57.085938 88.121094 C 57.085938 88.121094 57.394531 91.457031 55.601562 92.835938 L 55.601562 81.640625 C 55.601562 81.640625 55.71875 78.074219 57.59375 76.734375 C 57.59375 76.734375 58.835938 74.546875 56.109375 75.121094 C 56.109375 75.121094 50.890625 75.851562 50.65625 81.871094 L 50.539062 93.371094 L 49.296875 93.371094 L 49.179688 81.871094 C 48.945312 75.886719 43.730469 75.121094 43.730469 75.121094 C 41.003906 74.507812 42.246094 76.734375 42.246094 76.734375 C 44.117188 78.074219 44.234375 81.640625 44.234375 81.640625 L 44.234375 92.953125 C 42.445312 91.6875 42.753906 88.121094 42.753906 88.121094 L 42.753906 79.070312 C 42.753906 72.933594 35.164062 73.550781 35.164062 73.550781 C 33.40625 74.164062 35.046875 75.277344 35.046875 75.277344 C 37.769531 76.269531 38.042969 79.1875 38.042969 79.1875 L 38.042969 87.507812 Z M 38.195312 93.875 "/>
</clipPath>
</defs>
<g id="surface1">
<path style=" stroke:none;fill-rule:nonzero;fill:rgb(61.960784%,86.27451%,94.901961%);fill-opacity:1;" d="M 78.230469 76.617188 C 78.230469 81.945312 65.6875 86.242188 50.230469 86.242188 C 34.773438 86.242188 22.230469 81.90625 22.230469 76.617188 C 22.230469 71.289062 34.773438 66.992188 50.230469 66.992188 C 65.6875 66.992188 78.230469 71.289062 78.230469 76.617188 Z M 78.230469 76.617188 "/>
<g clip-path="url(#clip1)" clip-rule="nonzero">
<g clip-path="url(#clip2)" clip-rule="nonzero">
<path style=" stroke:none;fill-rule:nonzero;fill:rgb(49.019608%,73.72549%,90.588235%);fill-opacity:1;" d="M 78.230469 76.617188 C 78.230469 81.945312 65.6875 86.242188 50.230469 86.242188 C 34.773438 86.242188 22.230469 81.90625 22.230469 76.617188 C 22.230469 71.289062 34.773438 66.992188 50.230469 66.992188 C 65.6875 66.992188 78.230469 71.289062 78.230469 76.617188 Z M 78.230469 76.617188 "/>
</g>
</g>
<path style=" stroke:none;fill-rule:nonzero;fill:rgb(61.960784%,86.27451%,94.901961%);fill-opacity:1;" d="M 18.265625 48.277344 L 17.441406 51.039062 C 17.441406 51.039062 17.25 52.035156 18.183594 52.226562 C 19.199219 52.191406 19.117188 51.269531 19.042969 51.003906 Z M 18.265625 48.277344 "/>
<path style=" stroke:none;fill-rule:nonzero;fill:rgb(0.392157%,0.392157%,0.392157%);fill-opacity:1;" d="M 99.601562 36.65625 L 99.683594 36.3125 C 91.46875 34.703125 83.058594 34.667969 77.957031 34.898438 C 78.773438 31.941406 79.046875 28.492188 79.046875 24.699219 C 79.046875 19.210938 76.945312 14.839844 73.59375 11.539062 C 74.183594 9.660156 74.960938 5.480469 72.816406 0.15625 C 72.816406 0.15625 69.003906 -1.039062 60.316406 4.679688 C 56.929688 3.832031 53.308594 3.410156 49.6875 3.410156 C 45.714844 3.410156 41.703125 3.914062 37.925781 4.90625 C 28.96875 -1.113281 25.039062 0.117188 25.039062 0.117188 C 22.46875 6.441406 24.0625 11.15625 24.53125 12.3125 C 21.496094 15.53125 19.667969 19.636719 19.667969 24.65625 C 19.667969 28.457031 20.09375 31.867188 21.179688 34.816406 C 16.046875 34.625 7.941406 34.703125 0 36.273438 L 0.0820312 36.621094 C 8.023438 35.050781 16.199219 35.007812 21.300781 35.199219 C 21.535156 35.816406 21.804688 36.429688 22.078125 37.003906 C 17.015625 37.160156 8.410156 37.808594 0.15625 40.113281 L 0.273438 40.453125 C 8.605469 38.152344 17.289062 37.542969 22.3125 37.386719 C 25.347656 42.914062 31.269531 46.515625 41.855469 47.628906 C 40.34375 48.625 38.820312 50.3125 38.195312 53.1875 C 36.132812 54.144531 29.675781 56.523438 25.78125 49.929688 C 25.78125 49.929688 23.597656 46.015625 19.433594 45.707031 C 19.433594 45.707031 15.378906 45.632812 19.160156 48.203125 C 19.160156 48.203125 21.84375 49.464844 23.714844 54.1875 C 23.714844 54.1875 26.167969 62.234375 37.886719 59.632812 L 37.886719 67.878906 C 37.886719 67.878906 37.652344 70.824219 34.890625 71.785156 C 34.890625 71.785156 33.253906 72.894531 35.007812 73.515625 C 35.007812 73.515625 42.597656 74.125 42.597656 67.988281 L 42.597656 58.941406 C 42.597656 58.941406 42.289062 55.335938 44.082031 54.105469 L 44.082031 68.984375 C 44.082031 68.984375 43.964844 72.550781 42.089844 73.898438 C 42.089844 73.898438 40.847656 76.078125 43.574219 75.503906 C 43.574219 75.503906 48.792969 74.773438 49.027344 68.753906 L 49.144531 53.6875 L 50.386719 53.6875 L 50.503906 68.753906 C 50.738281 74.738281 55.953125 75.503906 55.953125 75.503906 C 58.679688 76.117188 57.433594 73.898438 57.433594 73.898438 C 55.566406 72.550781 55.449219 68.984375 55.449219 68.984375 L 55.449219 54.222656 C 57.238281 55.601562 56.929688 58.941406 56.929688 58.941406 L 56.929688 67.988281 C 56.929688 74.125 64.519531 73.515625 64.519531 73.515625 C 66.277344 72.894531 64.636719 71.785156 64.636719 71.785156 C 61.914062 70.789062 61.640625 67.878906 61.640625 67.878906 L 61.640625 55.984375 C 61.640625 51.34375 59.65625 48.890625 57.710938 47.628906 C 69.003906 46.515625 74.410156 42.949219 76.90625 37.351562 C 81.851562 37.46875 90.765625 38.078125 99.257812 40.453125 L 99.375 40.113281 C 90.925781 37.769531 82.082031 37.160156 77.0625 37.003906 C 77.296875 36.429688 77.488281 35.855469 77.6875 35.242188 C 82.902344 35.050781 91.351562 35.050781 99.601562 36.65625 Z M 99.601562 36.65625 "/>
<path style=" stroke:none;fill-rule:nonzero;fill:rgb(96.078431%,80%,70.196078%);fill-opacity:1;" d="M 67.988281 24.425781 C 70.398438 26.613281 71.84375 29.222656 71.84375 32.023438 C 71.84375 45.210938 61.875 45.558594 49.570312 45.558594 C 37.265625 45.558594 27.292969 43.714844 27.292969 32.023438 C 27.292969 29.222656 28.699219 26.613281 31.113281 24.464844 C 35.125 20.859375 41.898438 22.777344 49.570312 22.777344 C 57.238281 22.777344 63.976562 20.824219 67.988281 24.425781 Z M 67.988281 24.425781 "/>
<path style=" stroke:none;fill-rule:nonzero;fill:rgb(100%,100%,100%);fill-opacity:1;" d="M 42.171875 32.707031 C 42.171875 36.355469 40.105469 39.265625 37.535156 39.265625 C 34.964844 39.265625 32.898438 36.3125 32.898438 32.707031 C 32.898438 29.066406 34.964844 26.152344 37.535156 26.152344 C 40.105469 26.113281 42.171875 29.066406 42.171875 32.707031 Z M 42.171875 32.707031 "/>
<path style=" stroke:none;fill-rule:nonzero;fill:rgb(68.627451%,36.078431%,31.764706%);fill-opacity:1;" d="M 40.695312 32.789062 C 40.695312 35.199219 39.292969 37.160156 37.617188 37.160156 C 35.902344 37.160156 34.539062 35.199219 34.539062 32.789062 C 34.539062 30.371094 35.941406 28.414062 37.617188 28.414062 C 39.292969 28.414062 40.695312 30.371094 40.695312 32.789062 Z M 40.695312 32.789062 "/>
<path style=" stroke:none;fill-rule:nonzero;fill:rgb(100%,100%,100%);fill-opacity:1;" d="M 67.054688 32.707031 C 67.054688 36.355469 64.992188 39.265625 62.417969 39.265625 C 59.847656 39.265625 57.785156 36.3125 57.785156 32.707031 C 57.785156 29.066406 59.847656 26.152344 62.417969 26.152344 C 64.949219 26.113281 67.054688 29.066406 67.054688 32.707031 Z M 67.054688 32.707031 "/>
<path style=" stroke:none;fill-rule:nonzero;fill:rgb(68.627451%,36.078431%,31.764706%);fill-opacity:1;" d="M 65.535156 32.789062 C 65.535156 35.199219 64.132812 37.160156 62.457031 37.160156 C 60.746094 37.160156 59.386719 35.199219 59.386719 32.789062 C 59.386719 30.371094 60.78125 28.414062 62.457031 28.414062 C 64.167969 28.414062 65.535156 30.371094 65.535156 32.789062 Z M 50.816406 38.539062 C 50.816406 39.15625 50.3125 39.6875 49.644531 39.6875 C 49.027344 39.6875 48.480469 39.191406 48.480469 38.539062 C 48.480469 37.886719 48.984375 37.386719 49.644531 37.386719 C 50.269531 37.386719 50.816406 37.886719 50.816406 38.539062 Z M 46.960938 41.417969 C 46.882812 41.226562 47 41.035156 47.195312 40.953125 C 47.386719 40.878906 47.585938 40.992188 47.660156 41.183594 C 47.976562 42.027344 48.753906 42.566406 49.644531 42.566406 C 50.539062 42.566406 51.320312 41.992188 51.632812 41.183594 C 51.707031 40.992188 51.90625 40.878906 52.097656 40.953125 C 52.296875 41.035156 52.414062 41.226562 52.332031 41.417969 C 51.941406 42.53125 50.855469 43.296875 49.644531 43.296875 C 48.4375 43.296875 47.351562 42.53125 46.960938 41.417969 Z M 46.960938 41.417969 "/>
<path style=" stroke:none;fill-rule:nonzero;fill:rgb(76.862745%,89.803922%,85.098039%);fill-opacity:1;" d="M 21.226562 46.628906 C 21.226562 46.9375 20.871094 47.164062 20.402344 47.164062 C 19.976562 47.164062 19.585938 46.9375 19.585938 46.628906 C 19.585938 46.324219 19.9375 46.089844 20.402344 46.089844 C 20.871094 46.089844 21.226562 46.324219 21.226562 46.628906 Z M 23.480469 47.859375 C 23.480469 48.167969 23.128906 48.394531 22.664062 48.394531 C 22.230469 48.394531 21.84375 48.167969 21.84375 47.859375 C 21.84375 47.546875 22.195312 47.320312 22.664062 47.320312 C 23.128906 47.320312 23.480469 47.546875 23.480469 47.859375 Z M 24.839844 49.464844 C 24.839844 49.773438 24.496094 50.003906 24.023438 50.003906 C 23.597656 50.003906 23.207031 49.773438 23.207031 49.464844 C 23.207031 49.160156 23.554688 48.933594 24.023438 48.933594 C 24.496094 48.890625 24.839844 49.160156 24.839844 49.464844 Z M 26.089844 51.304688 C 26.089844 51.617188 25.738281 51.84375 25.273438 51.84375 C 24.839844 51.84375 24.449219 51.617188 24.449219 51.304688 C 24.449219 51.003906 24.804688 50.769531 25.273438 50.769531 C 25.738281 50.730469 26.089844 51.003906 26.089844 51.304688 Z M 27.453125 52.992188 C 27.453125 53.304688 27.101562 53.53125 26.632812 53.53125 C 26.207031 53.53125 25.816406 53.304688 25.816406 52.992188 C 25.816406 52.691406 26.167969 52.457031 26.632812 52.457031 C 27.101562 52.457031 27.453125 52.691406 27.453125 52.992188 Z M 29.320312 54.488281 C 29.320312 54.796875 28.96875 55.027344 28.503906 55.027344 C 28.074219 55.027344 27.683594 54.796875 27.683594 54.488281 C 27.683594 54.1875 28.035156 53.953125 28.503906 53.953125 C 28.96875 53.914062 29.320312 54.1875 29.320312 54.488281 Z M 31.929688 55.449219 C 31.929688 55.757812 31.578125 55.984375 31.113281 55.984375 C 30.679688 55.984375 30.292969 55.757812 30.292969 55.449219 C 30.292969 55.144531 30.644531 54.910156 31.113281 54.910156 C 31.578125 54.910156 31.929688 55.144531 31.929688 55.449219 Z M 34.539062 55.449219 C 34.539062 55.757812 34.1875 55.984375 33.722656 55.984375 C 33.296875 55.984375 32.90625 55.757812 32.90625 55.449219 C 32.90625 55.144531 33.253906 54.910156 33.722656 54.910156 C 34.1875 54.910156 34.539062 55.144531 34.539062 55.449219 Z M 37.183594 55.027344 C 37.183594 55.335938 36.835938 55.566406 36.367188 55.566406 C 35.941406 55.566406 35.550781 55.335938 35.550781 55.027344 C 35.550781 54.71875 35.902344 54.488281 36.367188 54.488281 C 36.800781 54.488281 37.183594 54.71875 37.183594 55.027344 Z M 37.183594 55.027344 "/>
</g>
</svg>

<?xml version="1.0" encoding="utf-8"?>
<!-- Generator: Adobe Illustrator 24.0.1, SVG Export Plug-In . SVG Version: 6.00 Build 0)  -->
<svg version="1.1" id="Camada_1" xmlns="http://www.w3.org/2000/svg" xmlns:xlink="http://www.w3.org/1999/xlink" x="0px" y="0px"
	 viewBox="0 0 100 100" style="enable-background:new 0 0 100 100;" xml:space="preserve">
<style type="text/css">
	.st0{fill:#9EDCF2;}
	.st1{clip-path:url(#SVGID_2_);}
	.st2{clip-path:url(#SVGID_4_);}
	.st3{fill:#7DBCE7;}
	.st4{fill:#010101;}
	.st5{fill:#F5CCB3;}
	.st6{fill:#FFFFFF;}
	.st7{fill:#AF5C51;}
	.st8{fill:#C4E5D9;}
</style>
<g id="surface1">
	<path class="st0" d="M78.2,76.6c0,5.3-12.5,9.6-28,9.6s-28-4.3-28-9.6c0-5.3,12.5-9.6,28-9.6S78.2,71.3,78.2,76.6z"/>
	<g>
		<g>
			<defs>
				<rect id="SVGID_1_" x="34" y="73" width="32" height="14"/>
			</defs>
			<clipPath id="SVGID_2_">
				<use xlink:href="#SVGID_1_"  style="overflow:visible;"/>
			</clipPath>
			<g class="st1">
				<g>
					<g>
						<defs>
							<path id="SVGID_3_" d="M38.2,93.9c0.6,2.9,2.1,4.6,3.7,5.6h16c1.9-1.3,3.9-3.8,3.9-8.4V79.2c0,0,0.2-3,3-3.9
								c0,0,1.6-1.1-0.1-1.7c0,0-7.6-0.6-7.6,5.5v9.1c0,0,0.3,3.3-1.5,4.7V81.6c0,0,0.1-3.6,2-4.9c0,0,1.2-2.2-1.5-1.6
								c0,0-5.2,0.7-5.5,6.8l-0.1,11.5h-1.2l-0.1-11.5c-0.2-6-5.4-6.8-5.4-6.8c-2.7-0.6-1.5,1.6-1.5,1.6c1.9,1.3,2,4.9,2,4.9V93
								c-1.8-1.3-1.5-4.8-1.5-4.8v-9.1c0-6.1-7.6-5.5-7.6-5.5c-1.8,0.6-0.1,1.7-0.1,1.7c2.7,1,3,3.9,3,3.9v8.3L38.2,93.9z"/>
						</defs>
						<clipPath id="SVGID_4_">
							<use xlink:href="#SVGID_3_"  style="overflow:visible;"/>
						</clipPath>
						<g class="st2">
							<path class="st3" d="M78.2,76.6c0,5.3-12.5,9.6-28,9.6s-28-4.3-28-9.6c0-5.3,12.5-9.6,28-9.6S78.2,71.3,78.2,76.6z"/>
						</g>
					</g>
				</g>
			</g>
		</g>
	</g>
	<path class="st0" d="M18.3,48.3l-0.8,2.8c0,0-0.2,1,0.7,1.2c1,0,0.9-1,0.9-1.2L18.3,48.3z"/>
	<path class="st4" d="M99.6,36.7l0.1-0.3C91.5,34.8,83.1,34.8,78,35c0.8-3,1.1-6.4,1.1-10.2c0-5.5-2.1-9.9-5.5-13.2
		c0.6-1.9,1.4-6.1-0.8-11.4c0,0-3.8-1.2-12.5,4.5c-3.4-0.8-7-1.3-10.6-1.3c-4,0-8,0.5-11.8,1.5c-9-6-12.9-4.8-12.9-4.8
		c-2.6,6.3-1,11-0.5,12.2c-3,3.2-4.9,7.3-4.9,12.3c0,3.8,0.4,7.2,1.5,10.2C16,34.6,7.9,34.7-0.1,36.3L0,36.6
		C7.9,35,16.1,35,21.2,35.2c0.2,0.6,0.5,1.2,0.8,1.8c-5.1,0.2-13.7,0.8-21.9,3.1l0.1,0.3c8.3-2.3,17-2.9,22-3.1
		c3,5.5,9,9.1,19.5,10.2c-1.5,1-3,2.7-3.7,5.6c-2.1,1-8.5,3.3-12.4-3.3c0,0-2.2-3.9-6.3-4.2c0,0-4.1-0.1-0.3,2.5c0,0,2.7,1.3,4.6,6
		c0,0,2.5,8,14.2,5.4v8.2c0,0-0.2,2.9-3,3.9c0,0-1.6,1.1,0.1,1.7c0,0,7.6,0.6,7.6-5.5v-9c0,0-0.3-3.6,1.5-4.8v15c0,0-0.1,3.6-2,4.9
		c0,0-1.2,2.2,1.5,1.6c0,0,5.2-0.7,5.5-6.8l0.1-15.1h1.2l0.1,15.1c0.2,6,5.4,6.8,5.4,6.8c2.7,0.6,1.5-1.6,1.5-1.6
		c-1.9-1.3-2-4.9-2-4.9V54.2c1.8,1.4,1.5,4.7,1.5,4.7v9c0,6.1,7.6,5.5,7.6,5.5c1.8-0.6,0.1-1.7,0.1-1.7c-2.7-1-3-3.9-3-3.9V56
		c0-4.6-2-7.1-3.9-8.4c11.3-1.1,16.7-4.7,19.2-10.3c4.9,0.1,13.9,0.7,22.4,3.1l0.1-0.3C90.9,37.8,82,37.1,77,37
		c0.2-0.6,0.4-1.1,0.6-1.8C82.9,35.1,91.4,35.1,99.6,36.7z"/>
	<path class="st5" d="M68,24.4c2.4,2.2,3.9,4.8,3.9,7.6c0,13.2-10,13.5-22.3,13.5S27.3,43.7,27.3,32c0-2.8,1.4-5.4,3.8-7.6
		c4-3.6,10.8-1.7,18.5-1.7C57.2,22.8,64,20.8,68,24.4z"/>
	<path class="st6" d="M42.2,32.7c0,3.6-2.1,6.6-4.6,6.6s-4.6-3-4.6-6.6s2.1-6.6,4.6-6.6S42.2,29.1,42.2,32.7z"/>
	<path class="st7" d="M40.7,32.8c0,2.4-1.4,4.4-3.1,4.4s-3.1-2-3.1-4.4s1.4-4.4,3.1-4.4S40.7,30.4,40.7,32.8z"/>
	<path class="st6" d="M67.1,32.7c0,3.6-2.1,6.6-4.6,6.6c-2.6,0-4.6-3-4.6-6.6s2.1-6.6,4.6-6.6C64.9,26.1,67.1,29.1,67.1,32.7z"/>
	<path class="st7" d="M65.5,32.8c0,2.4-1.4,4.4-3.1,4.4s-3.1-2-3.1-4.4s1.4-4.4,3.1-4.4C64.2,28.4,65.5,30.4,65.5,32.8z M50.8,38.5
		c0,0.6-0.5,1.1-1.2,1.1c-0.6,0-1.2-0.5-1.2-1.1s0.5-1.2,1.2-1.2C50.3,37.4,50.8,37.9,50.8,38.5z M47,41.4c-0.1-0.2,0-0.4,0.2-0.5
		s0.4,0,0.5,0.2c0.3,0.8,1.1,1.4,2,1.4s1.7-0.6,2-1.4c0.1-0.2,0.3-0.3,0.5-0.2s0.3,0.3,0.2,0.5c-0.4,1.1-1.5,1.9-2.7,1.9
		C48.4,43.3,47.4,42.5,47,41.4z"/>
	<path class="st8" d="M21.2,46.6c0,0.3-0.4,0.5-0.8,0.5s-0.8-0.2-0.8-0.5s0.4-0.5,0.8-0.5C20.9,46.1,21.2,46.3,21.2,46.6z
		 M23.5,47.9c0,0.3-0.4,0.5-0.8,0.5s-0.8-0.2-0.8-0.5s0.4-0.5,0.8-0.5C23.1,47.3,23.5,47.5,23.5,47.9z M24.8,49.5
		c0,0.3-0.3,0.5-0.8,0.5c-0.4,0-0.8-0.2-0.8-0.5S23.5,49,24,49C24.5,48.9,24.8,49.2,24.8,49.5z M26.1,51.3c0,0.3-0.4,0.5-0.8,0.5
		s-0.8-0.2-0.8-0.5s0.4-0.5,0.8-0.5C25.7,50.7,26.1,51,26.1,51.3z M27.5,53c0,0.3-0.4,0.5-0.8,0.5s-0.8-0.2-0.8-0.5s0.4-0.5,0.8-0.5
		S27.5,52.7,27.5,53z M29.3,54.5c0,0.3-0.4,0.5-0.8,0.5s-0.8-0.2-0.8-0.5s0.4-0.5,0.8-0.5C29,53.9,29.3,54.2,29.3,54.5z M31.9,55.4
		c0,0.3-0.4,0.5-0.8,0.5s-0.8-0.2-0.8-0.5s0.4-0.5,0.8-0.5C31.6,54.9,31.9,55.1,31.9,55.4z M34.5,55.4c0,0.3-0.4,0.5-0.8,0.5
		s-0.8-0.2-0.8-0.5s0.3-0.5,0.8-0.5S34.5,55.1,34.5,55.4z M37.2,55c0,0.3-0.3,0.5-0.8,0.5c-0.4,0-0.8-0.2-0.8-0.5s0.4-0.5,0.8-0.5
		C36.8,54.5,37.2,54.7,37.2,55z"/>
</g>
<text transform="matrix(1 0 0 1 104.5258 47.8573)" style="font-family:'Ubuntu-Bold'; font-size:30px;">GitJobs </text>
<text transform="matrix(1 0 0 1 104.5258 73.8573)" style="fill:#444444; font-family:'Ubuntu-Regular'; font-size:30px;">Explorer</text>
</svg>
